resources/svg/gift-fill.svg

<svg fill="currentColor" viewBox="0 0 24 24" xmlns="http://www.w3.org/2000/svg"><path d="M15.0049 2.00293C17.214 2.00293 19.0049 3.79379 19.0049 6.00293C19.0049 6.73196 18.8098 7.41544 18.4691 8.00404L23.0049 8.00293V10.0029H21.0049V20.0029C21.0049 20.5552 20.5572 21.0029 20.0049 21.0029H4.00488C3.4526 21.0029 3.00488 20.5552 3.00488 20.0029V10.0029H1.00488V8.00293L5.54065 8.00404C5.19992 7.41544 5.00488 6.73196 5.00488 6.00293C5.00488 3.79379 6.79574 2.00293 9.00488 2.00293C10.2001 2.00293 11.2729 2.52714 12.0058 3.35819C12.7369 2.52714 13.8097 2.00293 15.0049 2.00293ZM13.0049 10.0029H11.0049V20.0029H13.0049V10.0029ZM9.00488 4.00293C7.90031 4.00293 7.00488 4.89836 7.00488 6.00293C7.00488 7.05729 7.82076 7.92109 8.85562 7.99744L9.00488 8.00293H11.0049V6.00293C11.0049 5.00129 10.2686 4.17162 9.30766 4.0257L9.15415 4.00842L9.00488 4.00293ZM15.0049 4.00293C13.9505 4.00293 13.0867 4.81881 13.0104 5.85367L13.0049 6.00293V8.00293H15.0049C16.0592 8.00293 16.923 7.18705 16.9994 6.15219L17.0049 6.00293C17.0049 4.89836 16.1095 4.00293 15.0049 4.00293Z"/></svg>

<svg xmlns="http://www.w3.org/2000/svg" viewBox="0 0 24 24" fill="currentColor">
    <g>
        <path fill="none" d="M0 0h24v24H0z"/>
        <path d="M15 2a4 4 0 0 1 3.464 6.001L23 8v2h-2v10a1 1 0 0 1-1 1H4a1 1 0 0 1-1-1V10H1V8l4.536.001A4 4 0 0 1 12 3.355 3.983 3.983 0 0 1 15 2zm-2 8h-2v10h2V10zM9 4a2 2 0 0 0-.15 3.995L9 8h2V6a2 2 0 0 0-1.697-1.977l-.154-.018L9 4zm6 0a2 2 0 0 0-1.995 1.85L13 6v2h2a2 2 0 0 0 1.995-1.85L17 6a2 2 0 0 0-2-2z"/>
    </g>
</svg>
